X:5036
T:Gwynn's Fancy
M:6/8
L:1/8
Q:180
C:Aidan Crossey
R:Jig
K:D
|:F2G|ABG ABG|A2F F2G|ABG ABG|A3 F2G|
ABG ABG|A2F F2G|ABG c2E|D3:||
|:F2G|ABG B2c|d2F F2G|ABG B2c|d3 F2G|
ABG B2c|dcd g2f|efd c2A|d3:||
F2G|ABG F2E|D2E F2G|ABG B2c|d3 c2d|
efd c2B|ABG F2E|DEF A2B|A3 ABc|
dcd f2e|efd c2B|ABG F2A|d3 c2d|
eAA fAA|gAA fAA|efd c2A|d3 z3||
